icon/pk/pure-natural.svg

<svg viewBox="0 0 48 48" fill="none" xmlns="http://www.w3.org/2000/svg" height="1em" width="1em">
  <path d="M11 41.0001C15.1674 39.2093 19.0922 38.2431 22.7746 38.1015C26.457 37.9598 31.1988 38.5927 37 40.0001" stroke="black" stroke-width="4" stroke-linecap="round"/>
  <path d="M23.0452 44C22.2783 34.5599 22.5964 27.2266 23.9997 22" stroke="black" stroke-width="4" stroke-linecap="round"/>
  <path fill-rule="evenodd" clip-rule="evenodd" d="M24 23.176C25.59 17.1581 28.3898 13.5692 32.3992 12.4095C36.4086 11.2497 40.2755 11.7812 43.9998 14.004C44.0186 18.8959 41.8952 22.4796 37.6296 24.755C33.364 27.0305 28.8208 26.5041 24 23.176Z" fill="#2F88FF" stroke="black" stroke-width="4" stroke-linejoin="round"/>
  <path fill-rule="evenodd" clip-rule="evenodd" d="M23.7919 22.1141C24.6253 14.9273 22.9554 9.86554 18.7822 6.92866C14.6089 3.99178 9.77638 3.336 4.28447 4.96133C3.32535 11.5907 4.79153 16.6036 8.68299 20C12.5745 23.3964 17.6108 24.1011 23.7919 22.1141Z" fill="#2F88FF" stroke="black" stroke-width="4" stroke-linejoin="round"/>
</svg>

<svg width="48" height="48" fill="none" xmlns="http://www.w3.org/2000/svg"><path d="M11 41c4.167-1.79 8.092-2.757 11.775-2.898 3.682-.142 8.424.49 14.225 1.898" stroke="#000" stroke-width="4" stroke-linecap="round"/><path d="M23.045 44c-.767-9.44-.449-16.773.955-22" stroke="#000" stroke-width="4" stroke-linecap="round"/><path fill-rule="evenodd" clip-rule="evenodd" d="M24 23.176c1.59-6.018 4.39-9.607 8.4-10.766 4.009-1.16 7.876-.629 11.6 1.594.019 4.892-2.105 8.476-6.37 10.751-4.266 2.276-8.81 1.75-13.63-1.579ZM23.792 22.114c.833-7.187-.837-12.248-5.01-15.185C14.61 3.992 9.776 3.336 4.284 4.96c-.959 6.63.508 11.643 4.399 15.039 3.892 3.396 8.928 4.101 15.109 2.114Z" fill="#2F88FF" stroke="#000" stroke-width="4" stroke-linejoin="round"/></svg>
